X: 1
T:I Wish They'd Do It Now
O:england
Q:1/4=200
M:4/4
L:1/8
F:http://jc.tzo.net/~jc/music/abc/mirror/home.quicknet.nl/england.abc
K:G
|:GA|B2d2d2B2|A2G2G2GA|B2d2d2B2|d6d2|
e2f2g2f2|[1e2d2B2d2|e2A2A2B2|A6:|[2e2d2B2G2|A2G2G2A2|G4|]
|:g3f|e2d2d2B2|d4g3f|e2d2d2B2|A6GA|
B2d2d3d|e2d2B2G2|A2G2G2A2|G4:|

